assets/img/dl/mac.svg

<svg width="224" height="72" viewBox="0 0 224 72" fill="none" xmlns="http://www.w3.org/2000/svg">
  <rect width="224" height="72" rx="8" fill="#3D3D46"/>
  <path d="M77.162 26V16.844H79.612C81.012 16.844 82.104 17.222 82.888 17.978C83.672 18.734 84.064 19.868 84.064 21.38C84.064 22.136 83.9613 22.8033 83.756 23.382C83.56 23.9607 83.2707 24.446 82.888 24.838C82.5147 25.2207 82.0573 25.51 81.516 25.706C80.984 25.902 80.3773 26 79.696 26H77.162ZM78.786 24.684H79.5C80.4333 24.684 81.1473 24.418 81.642 23.886C82.146 23.3447 82.398 22.5093 82.398 21.38C82.398 20.26 82.146 19.4433 81.642 18.93C81.138 18.4167 80.424 18.16 79.5 18.16H78.786V24.684ZM89.468 26.168C88.8707 26.168 88.3247 26.0607 87.83 25.846C87.3353 25.622 86.9107 25.3047 86.556 24.894C86.2013 24.474 85.926 23.97 85.73 23.382C85.534 22.794 85.436 22.1267 85.436 21.38C85.436 20.6427 85.534 19.9847 85.73 19.406C85.926 18.818 86.2013 18.3233 86.556 17.922C86.9107 17.5207 87.3353 17.2127 87.83 16.998C88.3247 16.7833 88.8707 16.676 89.468 16.676C90.0653 16.676 90.6113 16.7833 91.106 16.998C91.6007 17.2127 92.0253 17.5207 92.38 17.922C92.744 18.3233 93.024 18.818 93.22 19.406C93.416 19.9847 93.514 20.6427 93.514 21.38C93.514 22.1267 93.416 22.794 93.22 23.382C93.024 23.97 92.744 24.474 92.38 24.894C92.0253 25.3047 91.6007 25.622 91.106 25.846C90.6113 26.0607 90.0653 26.168 89.468 26.168ZM89.468 24.754C89.832 24.754 90.1587 24.6747 90.448 24.516C90.7373 24.3573 90.9847 24.1333 91.19 23.844C91.3953 23.5453 91.554 23.1907 91.666 22.78C91.778 22.36 91.834 21.8933 91.834 21.38C91.834 20.3533 91.6193 19.5507 91.19 18.972C90.77 18.384 90.196 18.09 89.468 18.09C88.74 18.09 88.1613 18.384 87.732 18.972C87.312 19.5507 87.102 20.3533 87.102 21.38C87.102 21.8933 87.158 22.36 87.27 22.78C87.382 23.1907 87.5407 23.5453 87.746 23.844C87.9513 24.1333 88.1987 24.3573 88.488 24.516C88.7773 24.6747 89.104 24.754 89.468 24.754ZM96.2009 26L94.3809 16.844H96.0469L96.8449 21.464C96.9196 21.9587 96.9942 22.4487 97.0689 22.934C97.1436 23.4193 97.2182 23.9047 97.2929 24.39H97.3489C97.4516 23.9047 97.5496 23.4193 97.6429 22.934C97.7456 22.4393 97.8482 21.9493 97.9509 21.464L99.0709 16.844H100.485L101.605 21.464C101.708 21.94 101.81 22.4253 101.913 22.92C102.016 23.4053 102.118 23.8953 102.221 24.39H102.277C102.352 23.8953 102.422 23.4053 102.487 22.92C102.562 22.4347 102.636 21.9493 102.711 21.464L103.509 16.844H105.063L103.313 26H101.297L100.163 21.184C100.088 20.8293 100.014 20.4793 99.9389 20.134C99.8736 19.7793 99.8129 19.4247 99.7569 19.07H99.7009C99.6356 19.4247 99.5656 19.7793 99.4909 20.134C99.4256 20.4793 99.3556 20.8293 99.2809 21.184L98.1749 26H96.2009ZM106.488 26V16.844H108.154L111.01 21.996L111.948 23.942H112.004C111.967 23.466 111.92 22.9573 111.864 22.416C111.818 21.8653 111.794 21.3333 111.794 20.82V16.844H113.348V26H111.682L108.826 20.848L107.888 18.902H107.832C107.87 19.3873 107.912 19.896 107.958 20.428C108.014 20.96 108.042 21.4827 108.042 21.996V26H106.488ZM115.676 26V16.844H117.3V24.628H121.108V26H115.676ZM125.822 26.168C125.224 26.168 124.678 26.0607 124.184 25.846C123.689 25.622 123.264 25.3047 122.91 24.894C122.555 24.474 122.28 23.97 122.084 23.382C121.888 22.794 121.79 22.1267 121.79 21.38C121.79 20.6427 121.888 19.9847 122.084 19.406C122.28 18.818 122.555 18.3233 122.91 17.922C123.264 17.5207 123.689 17.2127 124.184 16.998C124.678 16.7833 125.224 16.676 125.822 16.676C126.419 16.676 126.965 16.7833 127.46 16.998C127.954 17.2127 128.379 17.5207 128.734 17.922C129.098 18.3233 129.378 18.818 129.574 19.406C129.77 19.9847 129.868 20.6427 129.868 21.38C129.868 22.1267 129.77 22.794 129.574 23.382C129.378 23.97 129.098 24.474 128.734 24.894C128.379 25.3047 127.954 25.622 127.46 25.846C126.965 26.0607 126.419 26.168 125.822 26.168ZM125.822 24.754C126.186 24.754 126.512 24.6747 126.802 24.516C127.091 24.3573 127.338 24.1333 127.544 23.844C127.749 23.5453 127.908 23.1907 128.02 22.78C128.132 22.36 128.188 21.8933 128.188 21.38C128.188 20.3533 127.973 19.5507 127.544 18.972C127.124 18.384 126.55 18.09 125.822 18.09C125.094 18.09 124.515 18.384 124.086 18.972C123.666 19.5507 123.456 20.3533 123.456 21.38C123.456 21.8933 123.512 22.36 123.624 22.78C123.736 23.1907 123.894 23.5453 124.1 23.844C124.305 24.1333 124.552 24.3573 124.842 24.516C125.131 24.6747 125.458 24.754 125.822 24.754ZM133.438 21.128L133.116 22.248H135.454L135.132 21.128C134.983 20.6427 134.838 20.1433 134.698 19.63C134.568 19.1167 134.437 18.608 134.306 18.104H134.25C134.12 18.6173 133.989 19.1307 133.858 19.644C133.728 20.148 133.588 20.6427 133.438 21.128ZM130.372 26L133.354 16.844H135.258L138.24 26H136.532L135.818 23.522H132.738L132.024 26H130.372ZM139.369 26V16.844H141.819C143.219 16.844 144.311 17.222 145.095 17.978C145.879 18.734 146.271 19.868 146.271 21.38C146.271 22.136 146.168 22.8033 145.963 23.382C145.767 23.9607 145.478 24.446 145.095 24.838C144.722 25.2207 144.264 25.51 143.723 25.706C143.191 25.902 142.584 26 141.903 26H139.369ZM140.993 24.684H141.707C142.64 24.684 143.354 24.418 143.849 23.886C144.353 23.3447 144.605 22.5093 144.605 21.38C144.605 20.26 144.353 19.4433 143.849 18.93C143.345 18.4167 142.631 18.16 141.707 18.16H140.993V24.684ZM150.922 26V16.844H156.452V18.216H152.546V20.806H155.878V22.178H152.546V26H150.922ZM161.478 26.168C160.88 26.168 160.334 26.0607 159.84 25.846C159.345 25.622 158.92 25.3047 158.566 24.894C158.211 24.474 157.936 23.97 157.74 23.382C157.544 22.794 157.446 22.1267 157.446 21.38C157.446 20.6427 157.544 19.9847 157.74 19.406C157.936 18.818 158.211 18.3233 158.566 17.922C158.92 17.5207 159.345 17.2127 159.84 16.998C160.334 16.7833 160.88 16.676 161.478 16.676C162.075 16.676 162.621 16.7833 163.116 16.998C163.61 17.2127 164.035 17.5207 164.39 17.922C164.754 18.3233 165.034 18.818 165.23 19.406C165.426 19.9847 165.524 20.6427 165.524 21.38C165.524 22.1267 165.426 22.794 165.23 23.382C165.034 23.97 164.754 24.474 164.39 24.894C164.035 25.3047 163.61 25.622 163.116 25.846C162.621 26.0607 162.075 26.168 161.478 26.168ZM161.478 24.754C161.842 24.754 162.168 24.6747 162.458 24.516C162.747 24.3573 162.994 24.1333 163.2 23.844C163.405 23.5453 163.564 23.1907 163.676 22.78C163.788 22.36 163.844 21.8933 163.844 21.38C163.844 20.3533 163.629 19.5507 163.2 18.972C162.78 18.384 162.206 18.09 161.478 18.09C160.75 18.09 160.171 18.384 159.742 18.972C159.322 19.5507 159.112 20.3533 159.112 21.38C159.112 21.8933 159.168 22.36 159.28 22.78C159.392 23.1907 159.55 23.5453 159.756 23.844C159.961 24.1333 160.208 24.3573 160.498 24.516C160.787 24.6747 161.114 24.754 161.478 24.754ZM167.355 26V16.844H170.449C170.925 16.844 171.369 16.8907 171.779 16.984C172.19 17.0773 172.545 17.2313 172.843 17.446C173.142 17.6513 173.375 17.9267 173.543 18.272C173.721 18.6173 173.809 19.0467 173.809 19.56C173.809 20.26 173.641 20.8247 173.305 21.254C172.979 21.6833 172.54 21.9913 171.989 22.178L174.173 26H172.353L170.379 22.416H168.979V26H167.355ZM168.979 21.128H170.281C170.907 21.128 171.383 20.9973 171.709 20.736C172.045 20.4747 172.213 20.0827 172.213 19.56C172.213 19.028 172.045 18.6593 171.709 18.454C171.383 18.2487 170.907 18.146 170.281 18.146H168.979V21.128Z" fill="white"/>
  <path d="M78.156 55V36.744H82.664L85.604 44.864C85.7907 45.4053 85.968 45.9653 86.136 46.544C86.304 47.104 86.4813 47.664 86.668 48.224H86.78C86.9667 47.664 87.1347 47.104 87.284 46.544C87.452 45.9653 87.6293 45.4053 87.816 44.864L90.7 36.744H95.18V55H91.428V48.308C91.428 47.86 91.4467 47.3653 91.484 46.824C91.5213 46.2827 91.568 45.7413 91.624 45.2C91.68 44.64 91.736 44.0987 91.792 43.576C91.848 43.0347 91.904 42.54 91.96 42.092H91.848L90.364 46.432L87.76 53.404H85.492L82.888 46.432L81.432 42.092H81.32C81.376 42.54 81.432 43.0347 81.488 43.576C81.544 44.0987 81.6 44.64 81.656 45.2C81.712 45.7413 81.7587 46.2827 81.796 46.824C81.8333 47.3653 81.852 47.86 81.852 48.308V55H78.156ZM103.768 45.76L103.32 47.44H107.212L106.792 45.76C106.531 44.8453 106.279 43.8747 106.036 42.848C105.793 41.8213 105.551 40.832 105.308 39.88H105.196C104.972 40.8507 104.739 41.8493 104.496 42.876C104.272 43.884 104.029 44.8453 103.768 45.76ZM97.1601 55L102.872 36.744H107.828L113.54 55H109.172L108.052 50.66H102.48L101.36 55H97.1601ZM122.877 55.336C121.72 55.336 120.628 55.14 119.601 54.748C118.575 54.3373 117.669 53.74 116.885 52.956C116.12 52.172 115.513 51.2013 115.065 50.044C114.617 48.868 114.393 47.5147 114.393 45.984C114.393 44.472 114.627 43.128 115.093 41.952C115.56 40.7573 116.185 39.7493 116.969 38.928C117.753 38.1067 118.668 37.4813 119.713 37.052C120.759 36.6227 121.86 36.408 123.017 36.408C124.193 36.408 125.248 36.6507 126.181 37.136C127.115 37.6027 127.889 38.1533 128.505 38.788L126.321 41.42C125.855 40.9907 125.36 40.6453 124.837 40.384C124.333 40.104 123.755 39.964 123.101 39.964C122.485 39.964 121.897 40.104 121.337 40.384C120.796 40.6453 120.32 41.028 119.909 41.532C119.517 42.036 119.2 42.652 118.957 43.38C118.733 44.108 118.621 44.9293 118.621 45.844C118.621 47.7293 119.023 49.1947 119.825 50.24C120.628 51.2667 121.701 51.78 123.045 51.78C123.792 51.78 124.455 51.6213 125.033 51.304C125.631 50.968 126.153 50.5573 126.601 50.072L128.785 52.648C127.255 54.44 125.285 55.336 122.877 55.336Z" fill="white"/>
  <path d="M59.1826 47.6273C58.4824 49.2693 57.6536 50.7808 56.6933 52.1705C55.3844 54.0649 54.3126 55.3762 53.4867 56.1044C52.2063 57.2997 50.8345 57.9118 49.3655 57.9467C48.3109 57.9467 47.0391 57.642 45.5586 57.0241C44.0733 56.409 42.7084 56.1044 41.4603 56.1044C40.1513 56.1044 38.7475 56.409 37.2459 57.0241C35.742 57.642 34.5305 57.9641 33.6043 57.996C32.1956 58.0569 30.7914 57.4273 29.3899 56.1044C28.4953 55.3124 27.3764 53.9547 26.036 52.0312C24.5979 49.9772 23.4156 47.5954 22.4893 44.8799C21.4973 41.9468 21 39.1066 21 36.3569C21 33.2071 21.6705 30.4905 23.0134 28.214C24.0689 26.3854 25.473 24.9429 27.2304 23.884C28.9878 22.8251 30.8866 22.2855 32.9315 22.2509C34.0504 22.2509 35.5177 22.6023 37.3411 23.2927C39.1593 23.9855 40.3268 24.3369 40.8387 24.3369C41.2214 24.3369 42.5183 23.9261 44.717 23.1071C46.7961 22.3475 48.5509 22.0331 49.9885 22.1569C53.8839 22.4761 56.8105 24.0349 58.7568 26.8432C55.2729 28.9859 53.5495 31.9872 53.5838 35.8373C53.6153 38.8362 54.687 41.3318 56.7933 43.3133C57.7479 44.2329 58.8139 44.9437 60 45.4485C59.7428 46.2057 59.4713 46.931 59.1826 47.6273ZM50.2486 11.9403C50.2486 14.2908 49.4026 16.4855 47.7164 18.5169C45.6815 20.9318 43.2202 22.3272 40.5512 22.107C40.5171 21.825 40.4974 21.5283 40.4974 21.2164C40.4974 18.9599 41.4651 16.545 43.1836 14.5704C44.0416 13.5707 45.1328 12.7394 46.456 12.0763C47.7764 11.4231 49.0254 11.0619 50.2 11C50.2343 11.3142 50.2486 11.6285 50.2486 11.9402V11.9403Z" fill="white"/>
</svg>

<svg xmlns="http://www.w3.org/2000/svg" width="224" height="72" fill="none"><rect width="224" height="72" rx="8" fill="#3d3d46"/><path d="M77.162 26v-9.156h2.45c1.4 0 2.492.378 3.276 1.134s1.176 1.89 1.176 3.402c0 .756-.103 1.423-.308 2.002-.196.579-.485 1.064-.868 1.456a3.59 3.59 0 0 1-1.372.868c-.532.196-1.139.294-1.82.294h-2.534zm1.624-1.316h.714c.933 0 1.647-.266 2.142-.798.504-.541.756-1.377.756-2.506 0-1.12-.252-1.937-.756-2.45s-1.218-.77-2.142-.77h-.714v6.524zm10.682 1.484c-.597 0-1.143-.107-1.638-.322-.495-.224-.919-.541-1.274-.952-.355-.42-.63-.924-.826-1.512s-.294-1.255-.294-2.002c0-.737.098-1.395.294-1.974.196-.588.471-1.083.826-1.484a3.59 3.59 0 0 1 1.274-.924c.495-.215 1.041-.322 1.638-.322s1.143.107 1.638.322a3.59 3.59 0 0 1 1.274.924c.364.401.644.896.84 1.484.196.579.294 1.237.294 1.974 0 .747-.098 1.414-.294 2.002s-.476 1.092-.84 1.512c-.355.411-.779.728-1.274.952-.495.215-1.041.322-1.638.322zm0-1.414a2 2 0 0 0 .98-.238 2.21 2.21 0 0 0 .742-.672c.205-.299.364-.653.476-1.064.112-.42.168-.887.168-1.4 0-1.027-.215-1.829-.644-2.408a2 2 0 0 0-1.722-.882c-.728 0-1.307.294-1.736.882-.42.579-.63 1.381-.63 2.408 0 .513.056.98.168 1.4.112.411.271.765.476 1.064a2.21 2.21 0 0 0 .742.672 2 2 0 0 0 .98.238zM96.201 26l-1.82-9.156h1.666l.798 4.62.224 1.47.224 1.456h.056l.294-1.456.308-1.47 1.12-4.62h1.414l1.12 4.62.308 1.456.308 1.47h.056l.21-1.47.224-1.456.798-4.62h1.554L103.313 26h-2.016l-1.134-4.816-.224-1.05-.182-1.064h-.056l-.21 1.064-.21 1.05L98.175 26h-1.974zm10.287 0v-9.156h1.666l2.856 5.152.938 1.946h.056l-.14-1.526-.07-1.596v-3.976h1.554V26h-1.666l-2.856-5.152-.938-1.946h-.056l.126 1.526a14.98 14.98 0 0 1 .084 1.568V26h-1.554zm9.188 0v-9.156h1.624v7.784h3.808V26h-5.432zm10.146.168c-.598 0-1.144-.107-1.638-.322-.495-.224-.92-.541-1.274-.952-.355-.42-.63-.924-.826-1.512s-.294-1.255-.294-2.002c0-.737.098-1.395.294-1.974.196-.588.471-1.083.826-1.484a3.59 3.59 0 0 1 1.274-.924c.495-.215 1.04-.322 1.638-.322s1.143.107 1.638.322a3.59 3.59 0 0 1 1.274.924c.364.401.644.896.84 1.484.196.579.294 1.237.294 1.974 0 .747-.098 1.414-.294 2.002s-.476 1.092-.84 1.512a3.66 3.66 0 0 1-1.274.952c-.495.215-1.041.322-1.638.322zm0-1.414c.364 0 .69-.079.98-.238s.536-.383.742-.672c.205-.299.364-.653.476-1.064.112-.42.168-.887.168-1.4 0-1.027-.215-1.829-.644-2.408a2 2 0 0 0-1.722-.882c-.728 0-1.307.294-1.736.882-.42.579-.63 1.381-.63 2.408 0 .513.056.98.168 1.4.112.411.27.765.476 1.064a2.2 2.2 0 0 0 .742.672 2 2 0 0 0 .98.238zm7.616-3.626l-.322 1.12h2.338l-.322-1.12-.434-1.498-.392-1.526h-.056l-.392 1.54-.42 1.484zM130.372 26l2.982-9.156h1.904L138.24 26h-1.708l-.714-2.478h-3.08L132.024 26h-1.652zm8.997 0v-9.156h2.45c1.4 0 2.492.378 3.276 1.134s1.176 1.89 1.176 3.402c0 .756-.103 1.423-.308 2.002-.196.579-.485 1.064-.868 1.456a3.59 3.59 0 0 1-1.372.868c-.532.196-1.139.294-1.82.294h-2.534zm1.624-1.316h.714c.933 0 1.647-.266 2.142-.798.504-.541.756-1.377.756-2.506 0-1.12-.252-1.937-.756-2.45s-1.218-.77-2.142-.77h-.714v6.524zM150.922 26v-9.156h5.53v1.372h-3.906v2.59h3.332v1.372h-3.332V26h-1.624zm10.556.168c-.598 0-1.144-.107-1.638-.322-.495-.224-.92-.541-1.274-.952-.355-.42-.63-.924-.826-1.512s-.294-1.255-.294-2.002c0-.737.098-1.395.294-1.974.196-.588.471-1.083.826-1.484a3.59 3.59 0 0 1 1.274-.924c.495-.215 1.04-.322 1.638-.322s1.143.107 1.638.322a3.59 3.59 0 0 1 1.274.924c.364.401.644.896.84 1.484.196.579.294 1.237.294 1.974 0 .747-.098 1.414-.294 2.002s-.476 1.092-.84 1.512a3.66 3.66 0 0 1-1.274.952c-.495.215-1.041.322-1.638.322zm0-1.414c.364 0 .69-.079.98-.238s.536-.383.742-.672c.205-.299.364-.653.476-1.064.112-.42.168-.887.168-1.4 0-1.027-.215-1.829-.644-2.408a2 2 0 0 0-1.722-.882c-.728 0-1.307.294-1.736.882-.42.579-.63 1.381-.63 2.408 0 .513.056.98.168 1.4.112.411.27.765.476 1.064a2.2 2.2 0 0 0 .742.672 2 2 0 0 0 .98.238zM167.355 26v-9.156h3.094a6.01 6.01 0 0 1 1.33.14c.41.093.766.247 1.064.462.299.205.532.481.7.826.178.345.266.775.266 1.288 0 .7-.168 1.265-.504 1.694-.326.429-.765.737-1.316.924L174.173 26h-1.82l-1.974-3.584h-1.4V26h-1.624zm1.624-4.872h1.302c.626 0 1.102-.131 1.428-.392.336-.261.504-.653.504-1.176 0-.532-.168-.901-.504-1.106-.326-.205-.802-.308-1.428-.308h-1.302v2.982zM78.156 55V36.744h4.508l2.94 8.12.532 1.68.532 1.68h.112l.504-1.68.532-1.68 2.884-8.12h4.48V55h-3.752v-6.692l.056-1.484.14-1.624.168-1.624.168-1.484h-.112l-1.484 4.34-2.604 6.972h-2.268l-2.604-6.972-1.456-4.34h-.112l.168 1.484.168 1.624.14 1.624.056 1.484V55h-3.696zm25.612-9.24l-.448 1.68h3.892l-.42-1.68-.756-2.912-.728-2.968h-.112l-.7 2.996-.728 2.884zM97.16 55l5.712-18.256h4.956L113.54 55h-4.368l-1.12-4.34h-5.572L101.36 55h-4.2zm25.717.336c-1.157 0-2.249-.196-3.276-.588a8.02 8.02 0 0 1-2.716-1.792c-.765-.784-1.372-1.755-1.82-2.912-.448-1.176-.672-2.529-.672-4.06 0-1.512.234-2.856.7-4.032.467-1.195 1.092-2.203 1.876-3.024a7.91 7.91 0 0 1 2.744-1.876 8.62 8.62 0 0 1 3.304-.644c1.176 0 2.231.243 3.164.728.934.467 1.708 1.017 2.324 1.652l-2.184 2.632c-.466-.429-.961-.775-1.484-1.036-.504-.28-1.082-.42-1.736-.42-.616 0-1.204.14-1.764.42a4.18 4.18 0 0 0-1.428 1.148c-.392.504-.709 1.12-.952 1.848-.224.728-.336 1.549-.336 2.464 0 1.885.402 3.351 1.204 4.396.803 1.027 1.876 1.54 3.22 1.54.747 0 1.41-.159 1.988-.476a6.35 6.35 0 0 0 1.568-1.232l2.184 2.576c-1.53 1.792-3.5 2.688-5.908 2.688zm-63.694-7.709c-.7 1.642-1.529 3.154-2.489 4.543-1.309 1.894-2.381 3.206-3.207 3.934-1.28 1.195-2.652 1.807-4.121 1.842-1.055 0-2.326-.305-3.807-.923s-2.85-.92-4.098-.92c-1.309 0-2.713.305-4.214.92s-2.715.94-3.642.972c-1.409.061-2.813-.569-4.214-1.892-.895-.792-2.014-2.15-3.354-4.073-1.438-2.054-2.62-4.436-3.547-7.151-.993-2.932-1.49-5.772-1.49-8.522 0-3.15.671-5.866 2.013-8.143 1.055-1.829 2.46-3.271 4.217-4.33a11.21 11.21 0 0 1 5.701-1.633c1.119 0 2.586.351 4.41 1.042 1.818.693 2.986 1.044 3.498 1.044.383 0 1.68-.411 3.878-1.23 2.079-.76 3.834-1.074 5.272-.95 3.895.319 6.822 1.878 8.768 4.686-3.484 2.143-5.207 5.144-5.173 8.994.032 2.999 1.103 5.495 3.21 7.476.955.92 2.021 1.63 3.207 2.135a36.04 36.04 0 0 1-.817 2.179zM50.249 11.94c0 2.351-.846 4.545-2.532 6.577-2.035 2.415-4.496 3.81-7.165 3.59a7.43 7.43 0 0 1-.054-.891c0-2.256.968-4.671 2.686-6.646.858-1 1.949-1.831 3.272-2.494 1.32-.653 2.569-1.014 3.744-1.076.034.314.049.629.049.94h0z" fill="#fff"/></svg>
